X:39
T:The Old Bush
R:Reel
S:Paddy Canny and Peter O'Loughlin, Clare (fiddles)
N:As played (P O'L much the louder)
Z:Bernie Stocks
H:Follows "Bunker Hill"
M:4/4
K:G
AcGA cAA2 | d^cde fded | AcGA c3A | d2ed cAdc | AcGA cAAc | ~d3e ~f3g | 
afge fdec |1 dged cAdc :|2 dged cAA2 || eg~g2 ec~c2 | efge c3e | efge afge | 
dged cAA2 | eg~g2 ag~g2 | efge defg | afge fdec |1 dged cAA2 :|2 dged cAdc ||
<end>
<start>
